22x22/apps/Thunar.svg

<svg xmlns="http://www.w3.org/2000/svg" width="22" height="22" version="1">
 <rect style="fill:#00caff" width="14" height="12" x="4" y="1" rx=".75" ry=".75"/>
 <rect style="fill:#89e058" width="16" height="12" x="3" y="3" rx=".75" ry=".75"/>
 <rect style="fill:#ffcd54" width="18" height="12" x="2" y="5" rx=".75" ry=".75"/>
 <rect style="opacity:0.2" width="20" height="14" x="1" y="7.5" rx="1" ry="1"/>
 <rect style="fill:#8e8e8e" width="20" height="14" x="1" y="7" rx="1" ry="1"/>
 <rect style="opacity:0.2" width="6" height="2" x="8" y="12.5" rx=".5" ry=".5"/>
 <rect style="fill:#ececec" width="6" height="2" x="8" y="12" rx=".5" ry=".5"/>
 <path style="opacity:0.1;fill:#f4f4f7" d="M 4.75,1 C 4.3345,1 4,1.3345 4,1.75 v 0.5 C 4,1.8345 4.3345,1.5 4.75,1.5 h 12.5 C 17.6655,1.5 18,1.8345 18,2.25 V 1.75 C 18,1.3345 17.6655,1 17.25,1 Z"/>
 <path style="opacity:0.1;fill:#f4f4f7" d="M 3.75,3 C 3.3345,3 3,3.3345 3,3.75 v 0.5 C 3,3.8345 3.3345,3.5 3.75,3.5 h 14.5 C 18.6655,3.5 19,3.8345 19,4.25 V 3.75 C 19,3.3345 18.6655,3 18.25,3 Z"/>
 <path style="opacity:0.1;fill:#f4f4f7" d="M 2.75,5 C 2.3345,5 2,5.3345 2,5.75 v 0.5 C 2,5.8345 2.3345,5.5 2.75,5.5 h 16.5 C 19.6655,5.5 20,5.8345 20,6.25 V 5.75 C 20,5.3345 19.6655,5 19.25,5 Z"/>
 <path style="opacity:0.1" d="M 3.75,2.5 C 3.3345,2.5 3,2.8345 3,3.25 v 0.5 C 3,3.3345 3.3345,3 3.75,3 h 14.5 C 18.6655,3 19,3.3345 19,3.75 V 3.25 C 19,2.8345 18.6655,2.5 18.25,2.5 Z"/>
 <path style="opacity:0.1" d="M 2.75,4.5 C 2.3345,4.5 2,4.8345 2,5.25 v 0.5 C 2,5.3345 2.3345,5 2.75,5 h 16.5 C 19.6655,5 20,5.3345 20,5.75 V 5.25 C 20,4.8345 19.6655,4.5 19.25,4.5 Z"/>
</svg>

<svg xmlns="http://www.w3.org/2000/svg" width="22" height="22" version="1"><rect style="fill:#00caff" width="14" height="12" x="4" y="1" rx=".75" ry=".75"/><rect style="fill:#89e058" width="16" height="12" x="3" y="3" rx=".75" ry=".75"/><rect style="fill:#ffcd54" width="18" height="12" x="2" y="5" rx=".75" ry=".75"/><rect style="opacity:.2" width="20" height="14" x="1" y="7.5" rx="1" ry="1"/><rect style="fill:#8e8e8e" width="20" height="14" x="1" y="7" rx="1" ry="1"/><rect style="opacity:.2" width="6" height="2" x="8" y="12.5" rx=".5" ry=".5"/><rect style="fill:#ececec" width="6" height="2" x="8" y="12" rx=".5" ry=".5"/><path style="opacity:.1;fill:#f4f4f7" d="M4.75 1a.748.748 0 0 0-.75.75v.5c0-.415.335-.75.75-.75h12.5c.416 0 .75.335.75.75v-.5a.748.748 0 0 0-.75-.75zM3.75 3a.748.748 0 0 0-.75.75v.5c0-.416.334-.75.75-.75h14.5c.416 0 .75.334.75.75v-.5a.748.748 0 0 0-.75-.75zM2.75 5a.748.748 0 0 0-.75.75v.5c0-.415.334-.75.75-.75h16.5c.416 0 .75.335.75.75v-.5a.748.748 0 0 0-.75-.75z"/><path style="opacity:.1" d="M3.75 2.5a.748.748 0 0 0-.75.75v.5c0-.416.334-.75.75-.75h14.5c.416 0 .75.334.75.75v-.5a.748.748 0 0 0-.75-.75zM2.75 4.5a.748.748 0 0 0-.75.75v.5c0-.415.334-.75.75-.75h16.5c.416 0 .75.335.75.75v-.5a.748.748 0 0 0-.75-.75z"/></svg>
